packages/icons/src/camera.svg

<svg width="24" height="24" viewBox="0 0 24 24" fill="none" xmlns="http://www.w3.org/2000/svg">
<path d="M12 17.5C13.25 17.5 14.3125 17.0625 15.1875 16.1875C16.0625 15.3125 16.5 14.25 16.5 13C16.5 11.75 16.0625 10.6875 15.1875 9.8125C14.3125 8.9375 13.25 8.5 12 8.5C10.75 8.5 9.6875 8.9375 8.8125 9.8125C7.9375 10.6875 7.5 11.75 7.5 13C7.5 14.25 7.9375 15.3125 8.8125 16.1875C9.6875 17.0625 10.75 17.5 12 17.5ZM4 21C3.45 21 2.97917 20.8042 2.5875 20.4125C2.19583 20.0208 2 19.55 2 19V7C2 6.45 2.19583 5.97917 2.5875 5.5875C2.97917 5.19583 3.45 5 4 5H7.15L8.4 3.65C8.58333 3.43333 8.80417 3.27083 9.0625 3.1625C9.32083 3.05417 9.59167 3 9.875 3H14.125C14.4083 3 14.6792 3.05417 14.9375 3.1625C15.1958 3.27083 15.4167 3.43333 15.6 3.65L16.85 5H20C20.55 5 21.0208 5.19583 21.4125 5.5875C21.8042 5.97917 22 6.45 22 7V19C22 19.55 21.8042 20.0208 21.4125 20.4125C21.0208 20.8042 20.55 21 20 21H4ZM20 19V7H4V19H20Z" fill="black"/>
</svg>

<svg xmlns="http://www.w3.org/2000/svg" width="24" height="24" fill="none" viewBox="0 0 24 24">
  <path fill="#000" d="M12 17.5c1.25 0 2.313-.438 3.188-1.313.874-.875 1.312-1.937 1.312-3.187 0-1.25-.438-2.313-1.313-3.188C14.313 8.938 13.25 8.5 12 8.5c-1.25 0-2.313.438-3.188 1.313C7.939 10.687 7.5 11.75 7.5 13c0 1.25.438 2.313 1.313 3.188.874.875 1.937 1.312 3.187 1.312ZM4 21c-.55 0-1.02-.196-1.413-.587A1.926 1.926 0 0 1 2 19V7c0-.55.196-1.02.587-1.412A1.926 1.926 0 0 1 4 5h3.15L8.4 3.65c.183-.217.404-.38.662-.487A2.08 2.08 0 0 1 9.876 3h4.25c.283 0 .554.054.813.163.258.108.479.27.662.487L16.85 5H20c.55 0 1.02.196 1.413.588.391.391.587.862.587 1.412v12c0 .55-.196 1.02-.587 1.413A1.926 1.926 0 0 1 20 21H4Zm16-2V7H4v12h16Z"/>
</svg>
